X:2
T:Girl Talk
C:Neal Hefti
L:1/8
M:C
I:linebreak $
K:G
"G" z B BB"C#7" BBBB |"C" BBEE"Am" GG"D7" A2 |$"B7" z B BB"E7" BBBB |"Am" cc"Bm"BB"C" GG"D7" E2 |$
"Gm" z _B BB"Cm" BBBB |"Aø" _BB_EE"D7" GG A2 |$"B7" z B BB"E7" BBBB |
"Bø" ddcc"E7" BB (3BEG- |$"Am" G4-"Em" GB (3BEG |"C" G4"C#ø" x4"D7" z2 (3GAG |"Bm" d4"Em" B4 |
"Am" G4"D7" E4 :|"G" G8- | G4 z4 |]

